X:1
T:Nantes, 76.76 D repeat
T:Nantes, 76.76 D repeat
T:Ada Rose Gibbs (1864-1905) 
T:Public Domain Courtesy of the Cyber Hymnal™
C:Ada Rose Gibbs (1864-1905)
Z:Public Domain
Z:Courtesy of the Cyber Hymnal™
%%score ( 1 2 ) ( 3 4 )
L:1/8
Q:1/4=108
M:4/4
K:F
V:1 treble 
V:2 treble 
V:3 bass 
V:4 bass 
V:1
 (AB) | [Fc]2 [FA]2 [Fd]2 [FA]2 | [Fc]2 [Fc]4 [Fc]2 | [Ec]2 [EG]2 ([EG][FA]) [GB]2 | [FA]6 [FA]2 | %5
 [EG]2 [Gc]2 [G=B]2 [Bd]2 | [Bd]2 c4 [Gc]2 | (=BA) G2 [Fd]3 [Fc] | [Ec]6 [Ac]2 | %9
 ([GB][FA]) ([EG][FA]) [GB]2 [GB]2 | [FA]2 ([Ac]2 [Ac]2) ([Ac][Ad]) | %11
 [Gc]2 [EG]2 ([EG][FA]) [GB]2 | [FA]6 ([FA][FB]) | ([Fc][Fc]) [FA]2 F2 F2 | %14
 [Fd]2 ([Fc]2 [Fc]2) ([EB][EB]) | (Ac) (dc) (Gc) (dc) | (c4 A2) ([FA][FB]) | %17
 ([Ac][Ac]) [Ac]2 [G=B]2 [GB]2 | [GB]2 ([GB]2 [FA]2) ([FA][FB]) | (cd) (cA) [EG]2 [Ec]2 | F6 |] %21
V:2
 F2 | x8 | x8 | x8 | x8 | x8 | x2 c4 x2 | G2 G2 x4 | x8 | x8 | x8 | x8 | x8 | x4 F2 F2 | x8 | %15
 F2 F2 E2 E2 | F6 x2 | x8 | x8 | A2 A2 x4 | F6 |] %21
V:3
 [F,C]2 | [F,A,]2 [C,C]2 [F,A,]2 [C,C]2 | [F,A,]2 [F,A,]4 [F,A,]2 | [C,C]2 C2 [C,C]2 C2 | %4
 [F,C]6 [F,C]2 | [G,C]2 [G,E]2 [G,D]2 [G,F]2 | [G,F]2 [G,E]4 [G,E]2 | %7
 (DC) [G,=B,]2 [G,B,]3 [G,B,] | [C,C]6 [C,C]2 | [C,C]2 [C,C]2 [C,C]2 [C,C]2 | %10
 [F,C]2 ([F,F]2 [F,F]2) ([F,F][F,F]) | [C,E]2 [C,C]2 [C,C]2 [C,C]2 | [F,C]6 ([F,C][F,C]) | %13
 ([A,C][A,C]) [F,C]2 [A,C]2 [A,C]2 | B,2 ([A,C]2 [A,C]2) ([G,C][G,C]) | %15
 [F,C]2 [C,C]2 [G,C]2 [C,C]2 | (A,4 C2) ([F,C][F,C]) | ([^F,D][F,D]) [F,D]2 [G,D]2 [G,D]2 | %18
 [E,C]2 ([E,C]2 [F,C]2) ([F,C][F,C]) | [C,F]2 [C,F]2 [C,C]2 [C,B,]2 | [F,A,]6 |] %21
V:4
 x2 | x8 | x8 | x2 C2 C2 x2 | x8 | x8 | x8 | G,2 x6 | x8 | x8 | x8 | x8 | x8 | x8 | B,2 x6 | x8 | %16
 F,6 x2 | x8 | x8 | x8 | x6 |] %21

